symbolia-dark/scalable/actions/document-export-ocal.svg

<?xml version="1.0" encoding="UTF-8" standalone="no"?>
<svg
   xmlns:dc="http://purl.org/dc/elements/1.1/"
   xmlns:cc="http://creativecommons.org/ns#"
   xmlns:rdf="http://www.w3.org/1999/02/22-rdf-syntax-ns#"
   xmlns:svg="http://www.w3.org/2000/svg"
   xmlns="http://www.w3.org/2000/svg"
   xmlns:sodipodi="http://sodipodi.sourceforge.net/DTD/sodipodi-0.dtd"
   xmlns:inkscape="http://www.inkscape.org/namespaces/inkscape"
   version="1.1"
   id="mdi-application-export"
   width="24"
   height="24"
   viewBox="0 0 24 24"
   sodipodi:docname="document-export-ocal.svg"
   inkscape:version="1.0.2 (e86c870879, 2021-01-15)">
  <metadata
     id="metadata9">
    <rdf:RDF>
      <cc:Work
         rdf:about="">
        <dc:format>image/svg+xml</dc:format>
        <dc:type
           rdf:resource="http://purl.org/dc/dcmitype/StillImage" />
      </cc:Work>
    </rdf:RDF>
  </metadata>
  <defs
     id="defs7" />
  <sodipodi:namedview
     pagecolor="#ffffff"
     bordercolor="#666666"
     borderopacity="1"
     objecttolerance="10"
     gridtolerance="10"
     guidetolerance="10"
     inkscape:pageopacity="0"
     inkscape:pageshadow="2"
     inkscape:window-width="1920"
     inkscape:window-height="1011"
     id="namedview5"
     showgrid="false"
     inkscape:zoom="33.208333"
     inkscape:cx="12"
     inkscape:cy="12"
     inkscape:window-x="0"
     inkscape:window-y="0"
     inkscape:window-maximized="1"
     inkscape:current-layer="mdi-application-export" />
  <path fill="white"
     d="m 19,3 c 1.11,0 2,0.9 2,2 v 4.67 l -2,-2 V 7 H 5 v 12 h 14 v -0.67 l 2,-2 V 19 c 0,1.104569 -0.895431,2 -2,2 H 5 C 3.89,21 3,20.1 3,19 V 5 C 3,3.8954305 3.8954305,3 5,3 Z"
     id="path2"
     sodipodi:nodetypes="ssccccccccsssssss" />
  <path fill="white"
     d="m 15.88,17.29 c 0.39,0.39 1.02,0.39 1.41,0 l 3.59,-3.59 c 0.39,-0.39 0.39,-1.02 0,-1.41 L 17.29,8.7 c -0.39,-0.39 -1.02,-0.39 -1.41,0 -0.39,0.39 -0.39,1.02 0,1.41 L 17.76,12 H 9.09 c -0.55,0 -1,0.45 -1,1 0,0.55 0.45,1 1,1 h 8.67 l -1.88,1.88 c -0.39,0.39 -0.38,1.03 0,1.41 z"
     id="path2-3"
     sodipodi:nodetypes="ssssssccssscss" />
</svg>

<?xml version="1.0" encoding="UTF-8"?><!DOCTYPE svg PUBLIC "-//W3C//DTD SVG 1.1//EN" "http://www.w3.org/Graphics/SVG/1.1/DTD/svg11.dtd"><svg xmlns="http://www.w3.org/2000/svg" xmlns:xlink="http://www.w3.org/1999/xlink" version="1.1" id="mdi-application-export" width="24" height="24" viewBox="0 0 24 24"><path fill="white" d="M8,12H17.76L15.26,9.5L16.67,8.08L21.59,13L16.67,17.92L15.26,16.5L17.76,14H8V12M19,3C20.11,3 21,3.9 21,5V9.67L19,7.67V7H5V19H19V18.33L21,16.33V19A2,2 0 0,1 19,21H5C3.89,21 3,20.1 3,19V5A2,2 0 0,1 5,3H19Z" /></svg>
